X: 42268
T: Weasel, The
R: reel
M: 4/4
K: Amajor
|:"A"E2 CE {=G}FECE|ceAB ce e/e/e|"D"fefb "F#m"{fg}f2 ec|"Bm"BcAc "E"BcAF|
"A"E2 CE {=G}FECE|ceAB ce e/e/e|"D"fefb "F#m"{fg}f2 ec|"Bm"BcAB "A"cA A/A/A:|
|:"A"aece "D"fbfe|"A"cBce "F#m"f2 fe|"D"fbfe "A"cefc|"Bm"BcAc "E"BcAF|
"A"E2 CE {=G}FECE|ceAB ce e/e/e|"D"fefb "F#m"{fg}f2 ec|"Bm"BcAB "A"cA A/A/A:|

